mobile/24/svg/warning-24.svg

<svg width="24" height="24" viewBox="0 0 24 24" fill="none" xmlns="http://www.w3.org/2000/svg">
<path d="M12.8751 15.625H11.1251V17.375H12.8751V15.625Z" fill="black"/>
<path fill-rule="evenodd" clip-rule="evenodd" d="M11.1251 14V9.00001H12.8751V14H11.1251Z" fill="black"/>
<path d="M11.9561 4.92001C12.1211 4.92001 12.4251 4.97001 12.6111 5.30501L19.6511 17.965C19.8321 18.291 19.7231 18.572 19.6421 18.71C19.5611 18.848 19.3691 19.08 18.9961 19.08H5.00406C4.63206 19.08 4.44006 18.849 4.35906 18.712C4.27806 18.575 4.16806 18.295 4.34706 17.969L11.2991 5.30901C11.4851 4.97101 11.7901 4.92001 11.9561 4.92001ZM11.9561 3.17001C11.0971 3.17001 10.2391 3.60301 9.76506 4.46701L2.81306 17.127C1.89806 18.793 3.10306 20.83 5.00406 20.83H18.9971C20.9041 20.83 22.1091 18.781 21.1821 17.115L14.1421 4.45501C13.6641 3.59801 12.8101 3.17001 11.9561 3.17001Z" fill="black"/>
</svg>

<svg width="24" height="24" fill="none" xmlns="http://www.w3.org/2000/svg"><path d="M12.875 15.625h-1.75v1.75h1.75v-1.75z" fill="#000"/><path fill-rule="evenodd" clip-rule="evenodd" d="M11.125 14V9h1.75v5h-1.75z" fill="#000"/><path d="M11.956 4.92c.165 0 .47.05.655.385l7.04 12.66a.729.729 0 0 1-.009.745.726.726 0 0 1-.646.37H5.004a.727.727 0 0 1-.645-.368.728.728 0 0 1-.012-.743L11.3 5.309a.725.725 0 0 1 .657-.389zm0-1.75c-.859 0-1.717.433-2.19 1.297l-6.953 12.66c-.915 1.666.29 3.703 2.191 3.703h13.993c1.907 0 3.112-2.049 2.185-3.715l-7.04-12.66a2.478 2.478 0 0 0-2.186-1.285z" fill="#000"/></svg>
